svg/design/border_bottom_fill.svg

<?xml version="1.0" encoding="UTF-8"?>
<svg width="24px" height="24px" viewBox="0 0 24 24" version="1.1" xmlns="http://www.w3.org/2000/svg" xmlns:xlink="http://www.w3.org/1999/xlink">
    <title>border_bottom_fill</title>
    <g id="页面-1" stroke="none" stroke-width="1" fill="none" fill-rule="evenodd">
        <g id="Design" transform="translate(0.000000, -240.000000)">
            <g id="border_bottom_fill" transform="translate(0.000000, 240.000000)">
                 <path d="M24,0 L24,24 L0,24 L0,0 L24,0 Z M12.5934901,23.257841 L12.5819402,23.2595131 L12.5108777,23.2950439 L12.4918791,23.2987469 L12.4918791,23.2987469 L12.4767152,23.2950439 L12.4056548,23.2595131 C12.3958229,23.2563662 12.3870493,23.2590235 12.3821421,23.2649074 L12.3780323,23.275831 L12.360941,23.7031097 L12.3658947,23.7234994 L12.3769048,23.7357139 L12.4804777,23.8096931 L12.4953491,23.8136134 L12.4953491,23.8136134 L12.5071152,23.8096931 L12.6106902,23.7357139 L12.6232938,23.7196733 L12.6232938,23.7196733 L12.6266527,23.7031097 L12.609561,23.275831 C12.6075724,23.2657013 12.6010112,23.2592993 12.5934901,23.257841 L12.5934901,23.257841 Z M12.8583906,23.1452862 L12.8445485,23.1473072 L12.6598443,23.2396597 L12.6498822,23.2499052 L12.6498822,23.2499052 L12.6471943,23.2611114 L12.6650943,23.6906389 L12.6699349,23.7034178 L12.6699349,23.7034178 L12.678386,23.7104931 L12.8793402,23.8032389 C12.8914285,23.8068999 12.9022333,23.8029875 12.9078286,23.7952264 L12.9118235,23.7811639 L12.8776777,23.1665331 C12.8752882,23.1545897 12.8674102,23.1470016 12.8583906,23.1452862 L12.8583906,23.1452862 Z M12.1430473,23.1473072 C12.1332178,23.1423925 12.1221763,23.1452606 12.1156365,23.1525954 L12.1099173,23.1665331 L12.0757714,23.7811639 C12.0751323,23.7926639 12.0828099,23.8018602 12.0926481,23.8045676 L12.108256,23.8032389 L12.3092106,23.7104931 L12.3186497,23.7024347 L12.3186497,23.7024347 L12.3225043,23.6906389 L12.340401,23.2611114 L12.337245,23.2485176 L12.337245,23.2485176 L12.3277531,23.2396597 L12.1430473,23.1473072 Z" id="MingCute" fill-rule="nonzero"></path>
                <path d="M4,2.5 C3.17157,2.5 2.5,3.17157 2.5,4 C2.5,4.82843 3.17157,5.5 4,5.5 C4.82843,5.5 5.5,4.82843 5.5,4 C5.5,3.17157 4.82843,2.5 4,2.5 Z M8,2.5 C7.17157,2.5 6.5,3.17157 6.5,4 C6.5,4.82843 7.17157,5.5 8,5.5 C8.82843,5.5 9.5,4.82843 9.5,4 C9.5,3.17157 8.82843,2.5 8,2.5 Z M12,2.5 C11.1716,2.5 10.5,3.17157 10.5,4 C10.5,4.82843 11.1716,5.5 12,5.5 C12.8284,5.5 13.5,4.82843 13.5,4 C13.5,3.17157 12.8284,2.5 12,2.5 Z M16,2.5 C15.1716,2.5 14.5,3.17157 14.5,4 C14.5,4.82843 15.1716,5.5 16,5.5 C16.8284,5.5 17.5,4.82843 17.5,4 C17.5,3.17157 16.8284,2.5 16,2.5 Z M20,2.5 C19.1716,2.5 18.5,3.17157 18.5,4 C18.5,4.82843 19.1716,5.5 20,5.5 C20.8284,5.5 21.5,4.82843 21.5,4 C21.5,3.17157 20.8284,2.5 20,2.5 Z M4,6.5 C3.17157,6.5 2.5,7.17157 2.5,8 C2.5,8.82843 3.17157,9.5 4,9.5 C4.82843,9.5 5.5,8.82843 5.5,8 C5.5,7.17157 4.82843,6.5 4,6.5 Z M12,6.5 C11.1716,6.5 10.5,7.17157 10.5,8 C10.5,8.82843 11.1716,9.5 12,9.5 C12.8284,9.5 13.5,8.82843 13.5,8 C13.5,7.17157 12.8284,6.5 12,6.5 Z M20,6.5 C19.1716,6.5 18.5,7.17157 18.5,8 C18.5,8.82843 19.1716,9.5 20,9.5 C20.8284,9.5 21.5,8.82843 21.5,8 C21.5,7.17157 20.8284,6.5 20,6.5 Z M4,10.5 C3.17157,10.5 2.5,11.1716 2.5,12 C2.5,12.8284 3.17157,13.5 4,13.5 C4.82843,13.5 5.5,12.8284 5.5,12 C5.5,11.1716 4.82843,10.5 4,10.5 Z M8,10.5 C7.17157,10.5 6.5,11.1716 6.5,12 C6.5,12.8284 7.17157,13.5 8,13.5 C8.82843,13.5 9.5,12.8284 9.5,12 C9.5,11.1716 8.82843,10.5 8,10.5 Z M12,10.5 C11.1716,10.5 10.5,11.1716 10.5,12 C10.5,12.8284 11.1716,13.5 12,13.5 C12.8284,13.5 13.5,12.8284 13.5,12 C13.5,11.1716 12.8284,10.5 12,10.5 Z M16,10.5 C15.1716,10.5 14.5,11.1716 14.5,12 C14.5,12.8284 15.1716,13.5 16,13.5 C16.8284,13.5 17.5,12.8284 17.5,12 C17.5,11.1716 16.8284,10.5 16,10.5 Z M20,10.5 C19.1716,10.5 18.5,11.1716 18.5,12 C18.5,12.8284 19.1716,13.5 20,13.5 C20.8284,13.5 21.5,12.8284 21.5,12 C21.5,11.1716 20.8284,10.5 20,10.5 Z M4,14.5 C3.17157,14.5 2.5,15.1716 2.5,16 C2.5,16.8284 3.17157,17.5 4,17.5 C4.82843,17.5 5.5,16.8284 5.5,16 C5.5,15.1716 4.82843,14.5 4,14.5 Z M12,14.5 C11.1716,14.5 10.5,15.1716 10.5,16 C10.5,16.8284 11.1716,17.5 12,17.5 C12.8284,17.5 13.5,16.8284 13.5,16 C13.5,15.1716 12.8284,14.5 12,14.5 Z M20,14.5 C19.1716,14.5 18.5,15.1716 18.5,16 C18.5,16.8284 19.1716,17.5 20,17.5 C20.8284,17.5 21.5,16.8284 21.5,16 C21.5,15.1716 20.8284,14.5 20,14.5 Z M4,18.5 C3.17157,18.5 2.5,19.1716 2.5,20 C2.5,20.8284 3.17157,21.5 4,21.5 L20,21.5 C20.8284,21.5 21.5,20.8284 21.5,20 C21.5,19.1716 20.8284,18.5 20,18.5 L4,18.5 Z" id="形状" fill="#09244B"></path>
            </g>
        </g>
    </g>
</svg>

<svg xmlns="http://www.w3.org/2000/svg" width="24" height="24"><g fill="none" fill-rule="evenodd"><path d="M24 0v24H0V0h24ZM12.593 23.258l-.011.002-.071.035-.02.004-.014-.004-.071-.035c-.01-.004-.019-.001-.024.005l-.004.01-.017.428.005.02.01.013.104.074.015.004.012-.004.104-.074.012-.016.004-.017-.017-.427c-.002-.01-.009-.017-.017-.018Zm.265-.113-.013.002-.185.093-.01.01-.003.011.018.43.005.012.008.007.201.093c.012.004.023 0 .029-.008l.004-.014-.034-.614c-.003-.012-.01-.02-.02-.022Zm-.715.002a.023.023 0 0 0-.027.006l-.006.014-.034.614c0 .012.007.02.017.024l.015-.002.201-.093.01-.008.004-.011.017-.43-.003-.012-.01-.01-.184-.092Z"/><path fill="#09244B" d="M4 2.5a1.5 1.5 0 1 0 0 3 1.5 1.5 0 0 0 0-3Zm4 0a1.5 1.5 0 1 0 0 3 1.5 1.5 0 0 0 0-3Zm4 0a1.5 1.5 0 1 0 0 3 1.5 1.5 0 0 0 0-3Zm4 0a1.5 1.5 0 1 0 0 3 1.5 1.5 0 0 0 0-3Zm4 0a1.5 1.5 0 1 0 0 3 1.5 1.5 0 0 0 0-3Zm-16 4a1.5 1.5 0 1 0 0 3 1.5 1.5 0 0 0 0-3Zm8 0a1.5 1.5 0 1 0 0 3 1.5 1.5 0 0 0 0-3Zm8 0a1.5 1.5 0 1 0 0 3 1.5 1.5 0 0 0 0-3Zm-16 4a1.5 1.5 0 1 0 0 3 1.5 1.5 0 0 0 0-3Zm4 0a1.5 1.5 0 1 0 0 3 1.5 1.5 0 0 0 0-3Zm4 0a1.5 1.5 0 1 0 0 3 1.5 1.5 0 0 0 0-3Zm4 0a1.5 1.5 0 1 0 0 3 1.5 1.5 0 0 0 0-3Zm4 0a1.5 1.5 0 1 0 0 3 1.5 1.5 0 0 0 0-3Zm-16 4a1.5 1.5 0 1 0 0 3 1.5 1.5 0 0 0 0-3Zm8 0a1.5 1.5 0 1 0 0 3 1.5 1.5 0 0 0 0-3Zm8 0a1.5 1.5 0 1 0 0 3 1.5 1.5 0 0 0 0-3Zm-16 4a1.5 1.5 0 0 0 0 3h16a1.5 1.5 0 0 0 0-3H4Z"/></g></svg>
